assets/img/logo-cf.svg

<?xml version="1.0" encoding="UTF-8" standalone="no"?>
<svg width="67px" height="67px" viewBox="0 0 67 67" version="1.1" xmlns="http://www.w3.org/2000/svg" xmlns:xlink="http://www.w3.org/1999/xlink" xmlns:sketch="http://www.bohemiancoding.com/sketch/ns">
    <!-- Generator: Sketch 3.3.3 (12081) - http://www.bohemiancoding.com/sketch -->
    <title>logo cf</title>
    <desc>Created with Sketch.</desc>
    <defs></defs>
    <g id="Page-1" stroke="none" stroke-width="1" fill="none" fill-rule="evenodd" sketch:type="MSPage">
        <g id="Desktop-HD" sketch:type="MSArtboardGroup" transform="translate(-79.000000, -149.000000)">
            <g id="logo-cf" sketch:type="MSLayerGroup" transform="translate(80.100000, 150.200000)">
                <circle id="Oval-1" stroke="#FFFFFF" sketch:type="MSShapeGroup" cx="32.4375" cy="32.4375" r="32.4375"></circle>
                <path d="M26.59875,27.3020132 C25.7246404,27.356645 24.9939503,27.8005222 24.4066579,28.6336579 C23.8193655,29.4667936 23.5257237,30.7164785 23.5257237,32.38275 L23.5257237,41.4379342 C23.5257237,42.3666757 23.6144991,43.1315102 23.7920526,43.7324605 C23.9696062,44.3334109 24.2154458,44.8114324 24.5295789,45.1665395 C24.8437121,45.5216465 25.2124716,45.7674862 25.6358684,45.9040658 C26.0592653,46.0406454 26.5031424,46.1089342 26.9675132,46.1089342 C27.5411476,46.1089342 28.0874579,46.0269877 28.6064605,45.8630921 C29.1254631,45.6991965 29.5898269,45.4260414 29.9995658,45.0436184 C30.4093047,44.6611955 30.7370909,44.1353718 30.9829342,43.4661316 C31.2287775,42.7968914 31.3516974,41.970597 31.3516974,40.9872237 L32.2531184,40.9872237 L32.2531184,41.5198816 C32.2531184,42.2847275 32.1506852,43.0017598 31.9458158,43.671 C31.7409463,44.3402402 31.4131601,44.9275238 30.9624474,45.4328684 C30.5117346,45.9382131 29.9312799,46.334288 29.2210658,46.6211053 C28.5108517,46.9079225 27.6367552,47.0513289 26.59875,47.0513289 C25.9431678,47.0513289 25.2739376,46.9215802 24.5910395,46.6620789 C23.9081413,46.4025776 23.2935422,46.0338182 22.7472237,45.5557895 C22.2009052,45.0777608 21.7501991,44.497306 21.3950921,43.8144079 C21.0399851,43.1315097 20.8624342,42.3666753 20.8624342,41.5198816 L20.8624342,32.3417763 C20.8624342,31.4130348 21.0399851,30.5799116 21.3950921,29.8423816 C21.7501991,29.1048516 22.2009052,28.4765947 22.7472237,27.9575921 C23.2935422,27.4385895 23.9081413,27.0425145 24.5910395,26.7693553 C25.2739376,26.496196 25.9431678,26.3596184 26.59875,26.3596184 C26.9265411,26.3596184 27.2406696,26.3732762 27.5411447,26.4005921 C27.8416199,26.427908 28.1420906,26.5098546 28.4425658,26.6464342 C28.4698817,26.6737501 28.510855,26.6874079 28.5654868,26.6874079 L28.8932763,26.8103289 C29.1937515,26.8649608 29.5078799,26.9947095 29.8356711,27.1995789 C30.1634622,27.4044484 30.4502751,27.5068816 30.6961184,27.5068816 C31.0239095,27.5068816 31.1878026,27.2337264 31.1878026,26.6874079 L32.2531184,26.6874079 L32.2531184,33.6119605 L31.3516974,33.6119605 C31.3516974,33.2568535 31.3380396,32.8539496 31.3107237,32.4032368 C31.2834078,31.9525241 31.2219478,31.501818 31.1263421,31.0511053 C31.0307364,30.6003925 30.880501,30.1565153 30.6756316,29.7194605 C30.4707621,29.2824057 30.2044358,28.8863307 29.8766447,28.5312237 C29.3849581,28.039537 28.8523055,27.7117508 28.2786711,27.5478553 C27.7050366,27.3839597 27.1450685,27.3020132 26.59875,27.3020132 L26.59875,27.3020132 Z M44.7910658,20.8281711 C44.7910658,20.8281711 44.777408,20.8418288 44.7500921,20.8691447 C44.777408,20.8964607 44.7910658,20.9510917 44.7910658,21.0330395 C44.7910658,21.5247261 44.6066861,21.9481166 44.2379211,22.3032237 C43.8691561,22.6583307 43.4389367,22.8358816 42.94725,22.8358816 C42.4555633,22.8358816 42.0390017,22.6583307 41.6975526,22.3032237 C41.3561036,21.9481166 41.1853816,21.5247261 41.1853816,21.0330395 C41.1853816,20.2408776 41.5268255,19.6945673 42.2097237,19.3940921 C42.6467785,19.1755647 42.7423828,18.8887518 42.4965395,18.5336447 C42.4965395,18.5063288 42.4828817,18.4926711 42.4555658,18.4926711 C42.4282499,18.3834073 42.3463033,18.3014608 42.2097237,18.2468289 C41.9365644,18.0283015 41.6087782,17.9190395 41.2263553,17.9190395 C40.7893004,17.9190395 40.4478565,18.0965903 40.2020132,18.4516974 C39.9561698,18.8068044 39.7854478,19.2643393 39.6898421,19.8243158 C39.5942364,20.3842923 39.5396053,21.0330358 39.5259474,21.7705658 C39.5122894,22.5080958 39.5054605,23.2456147 39.5054605,23.9831447 L39.5054605,24.1060658 L39.5054605,26.7693553 L42.94725,26.7693553 L42.94725,27.8756447 L39.5054605,27.8756447 L39.5054605,44.4699868 C39.5054605,44.8797257 39.5600916,45.1665387 39.6693553,45.3304342 C39.778619,45.4943298 39.9015388,45.5899341 40.0381184,45.61725 C40.1746981,45.6991978 40.3522489,45.6991978 40.5707763,45.61725 L40.5707763,46.6825658 L35.6129605,46.6825658 L35.6129605,45.61725 C35.8314879,45.6991978 36.0090388,45.6991978 36.1456184,45.61725 C36.2548821,45.5899341 36.3709731,45.4943298 36.4938947,45.3304342 C36.6168164,45.1665387 36.6782763,44.8797257 36.6782763,44.4699868 L36.6782763,27.8756447 L33.8510921,27.8756447 L33.8510921,26.7693553 L36.6782763,26.7693553 C36.6782763,26.6054597 36.6851052,26.2640158 36.6987632,25.7450132 C36.7124211,25.2260106 36.71925,24.7411601 36.71925,24.2904474 C36.71925,23.8397346 36.7260789,23.4368307 36.7397368,23.0817237 C36.7533948,22.7266166 36.7602237,22.5490658 36.7602237,22.5490658 C36.7602237,21.7569039 36.855828,21.019385 37.0470395,20.3364868 C37.238251,19.6535887 37.5250639,19.0594762 37.9074868,18.5541316 C38.2899098,18.0487869 38.7611025,17.652712 39.3210789,17.3658947 C39.8810554,17.0790775 40.5161412,16.9356711 41.2263553,16.9356711 C41.6087782,16.9356711 42.018511,17.0312754 42.4555658,17.2224868 C42.8926206,17.4136983 43.2750378,17.6800246 43.6028289,18.0214737 C43.9306201,18.3629228 44.2106041,18.7658266 44.4427895,19.2301974 C44.6749748,19.6945681 44.7910658,20.2272207 44.7910658,20.8281711 L44.7910658,20.8281711 Z" id="cf" fill="#FFFFFF" sketch:type="MSShapeGroup"></path>
            </g>
        </g>
    </g>
</svg>

<svg xmlns="http://www.w3.org/2000/svg" width="67" height="67"><title>logo cf</title><desc>Created with Sketch.</desc><g fill="none"><g><g transform="translate(-79 -149) translate(80.1 150.2)"><circle cx="32.438" cy="32.438" r="32.438" stroke="#fff"/><path fill="#fff" d="M26.6 27.3c-.88.06-1.6.5-2.2 1.33-.58.84-.87 2.1-.87 3.75v9.06c0 .93.08 1.7.26 2.3.17.6.42 1.07.73 1.43.3.35.68.6 1.1.73.43.14.87.2 1.34.2.57 0 1.12-.07 1.64-.24.53-.16 1-.43 1.4-.82.4-.38.74-.9.98-1.57.25-.67.37-1.5.37-2.48h.9v.52c0 .76-.1 1.48-.3 2.15-.2.67-.54 1.26-1 1.76-.44.5-1.02.9-1.73 1.2-.7.28-1.58.42-2.62.42-.66 0-1.33-.13-2-.4-.7-.25-1.3-.62-1.85-1.1-.55-.47-1-1.05-1.35-1.74-.36-.67-.54-1.43-.54-2.28v-9.18c0-.93.18-1.76.54-2.5.35-.74.8-1.36 1.35-1.88.54-.52 1.16-.92 1.84-1.2.67-.26 1.34-.4 2-.4.33 0 .64 0 .94.04.3.03.6.1.9.25.03.02.07.04.13.04l.32.1c.3.06.6.2.94.4.32.2.6.3.86.3.32 0 .5-.27.5-.8h1.05v6.9h-.9c0-.34 0-.75-.04-1.2-.02-.45-.08-.9-.17-1.35-.1-.45-.25-.9-.45-1.33-.2-.44-.48-.83-.8-1.2-.5-.48-1.03-.8-1.6-.97-.57-.17-1.13-.25-1.68-.25zm18.2-6.47s-.02 0-.05.04c.03.03.04.08.04.16 0 .5-.2.92-.56 1.27-.37.36-.8.54-1.3.54-.48 0-.9-.18-1.24-.54-.34-.35-.5-.78-.5-1.27 0-.8.33-1.34 1-1.64.45-.22.54-.5.3-.87 0-.02-.02-.04-.04-.04-.03-.12-.1-.2-.25-.25-.26-.22-.6-.33-.97-.33-.44 0-.78.18-1.03.53-.24.36-.4.8-.5 1.37-.1.56-.16 1.2-.17 1.95-.02.74-.02 1.48-.02 2.2v2.81h3.45v1.1H39.5v16.6c0 .4.06.7.17.86.1.16.23.26.37.3.13.07.3.07.53 0v1.05H35.6v-1.06c.23.08.4.08.55 0 .1-.03.22-.13.34-.3.12-.15.18-.44.18-.85v-16.6h-2.83v-1.1h2.83c0-.16 0-.5.02-1.02 0-.52.02-1 .02-1.46 0-.46 0-.86.02-1.22 0-.35.02-.53.02-.53 0-.8.1-1.53.3-2.2.18-.7.47-1.3.85-1.8.4-.5.86-.9 1.42-1.18.56-.3 1.2-.43 1.9-.43.4 0 .8.1 1.24.28.43.2.82.46 1.14.8.33.34.6.75.84 1.2.23.47.35 1 .35 1.6z"/></g></g></g></svg>
